packages/sources/icons/src/vitamix/refund-line.svg

<svg width="16" height="16" viewBox="0 0 16 16" fill="none" xmlns="http://www.w3.org/2000/svg">
<path fill-rule="evenodd" clip-rule="evenodd" d="M2.00001 2H14C14.3682 2 14.6667 2.29848 14.6667 2.66667V13.3333C14.6667 13.7015 14.3682 14 14 14H2.00001C1.63182 14 1.33334 13.7015 1.33334 13.3333V2.66667C1.33334 2.29848 1.63182 2 2.00001 2ZM13.3333 3.33333V5.33333H2.66668V3.33333H13.3333ZM2.66668 6.66667H13.3333V12.6667H2.66668V6.66667ZM11.3333 9.33333H7.33334V7.66667L4.33334 10.6667H11.3333V9.33333Z" fill="#001018"/>
</svg>

<svg width="16" height="16" fill="none" xmlns="http://www.w3.org/2000/svg"><path fill-rule="evenodd" clip-rule="evenodd" d="M2 2h12c.368 0 .667.298.667.667v10.666A.667.667 0 0 1 14 14H2a.667.667 0 0 1-.667-.667V2.667C1.333 2.298 1.632 2 2 2zm11.333 1.333v2H2.667v-2h10.666zM2.667 6.667h10.666v6H2.667v-6zm8.666 2.666h-4V7.667l-3 3h7V9.333z" fill="#001018"/></svg>
